packages/icons/src/components/Icon/assets/small-solid/database.svg

<svg width="16" height="16" viewBox="0 0 16 16" fill="none" xmlns="http://www.w3.org/2000/svg">
<path d="M8 7C11.3137 7 14 5.65685 14 4C14 2.34315 11.3137 1 8 1C4.68629 1 2 2.34315 2 4C2 5.65685 4.68629 7 8 7Z" fill="black"/>
<path d="M8 8.5002C9.83923 8.5002 11.5785 8.13064 12.9135 7.46316C13.2795 7.28013 13.6539 7.0526 14 6.7793V8.0002C14 9.65705 11.3137 11.0002 8 11.0002C4.68629 11.0002 2 9.65705 2 8.0002V6.7793C2.34614 7.0526 2.72049 7.28013 3.08654 7.46316C4.4215 8.13064 6.16077 8.5002 8 8.5002Z" fill="black"/>
<path d="M8 12.5002C9.83923 12.5002 11.5785 12.1306 12.9135 11.4632C13.2795 11.2801 13.6539 11.0526 14 10.7793V12.0002C14 13.6571 11.3137 15.0002 8 15.0002C4.68629 15.0002 2 13.6571 2 12.0002V10.7793C2.34614 11.0526 2.72049 11.2801 3.08654 11.4632C4.4215 12.1306 6.16077 12.5002 8 12.5002Z" fill="black"/>
</svg>

<svg xmlns="http://www.w3.org/2000/svg" width="16" height="16" fill="none" viewBox="0 0 16 16">
    <path fill="#000" d="M8 7c3.314 0 6-1.343 6-3s-2.686-3-6-3-6 1.343-6 3 2.686 3 6 3"/>
    <path fill="#000" d="M8 8.5c1.84 0 3.579-.37 4.914-1.037A6.3 6.3 0 0 0 14 6.78V8c0 1.657-2.686 3-6 3S2 9.657 2 8V6.78c.346.273.72.5 1.087.683C4.42 8.131 6.16 8.5 8 8.5"/>
    <path fill="#000" d="M8 12.5c1.84 0 3.579-.37 4.914-1.037.366-.183.74-.41 1.086-.684V12c0 1.657-2.686 3-6 3s-6-1.343-6-3v-1.22c.346.273.72.5 1.087.683C4.42 12.131 6.16 12.5 8 12.5"/>
</svg>
